src/assets/sticker/philippines.svg

<svg width="100" height="100" viewBox="0 0 100 100" fill="none" xmlns="http://www.w3.org/2000/svg">
<g id="philippines" clip-path="url(#clip0_122_3383)">
<g id="Frame 1">
<path id="Union" d="M87.4259 11.7963H14.3704C7.42591 11.7963 1.7963 17.4259 1.7963 24.3704V78.2594C1.7963 85.2038 7.4259 90.8335 14.3704 90.8335H87.4259C94.3704 90.8335 100 85.2039 100 78.2594V24.3704C100 17.4259 94.3704 11.7963 87.4259 11.7963Z" fill="#605F5E" fill-opacity="0.3"/>
<path id="Union_2" d="M85.6296 10H12.5741C5.62962 10 0 15.6296 0 22.5741V76.4631C0 83.4076 5.6296 89.0372 12.5741 89.0372H85.6296C92.5741 89.0372 98.2037 83.4076 98.2037 76.4631V22.5741C98.2037 15.6296 92.5741 10 85.6296 10Z" fill="#F5F1EE"/>
<g id="flag-container">
<g clip-path="url(#clip1_122_3383)">
<g id="Philippines (PH)">
<g clip-path="url(#clip2_122_3383)">
<path id="Vector" d="M10.7778 20.7778H87.4259V49.5186H10.7778V20.7778Z" fill="#0038A8"/>
<path id="Vector_2" d="M10.7782 49.5186H87.4263V78.2594H10.7782V49.5186Z" fill="#CE1126"/>
<path id="Vector_3" d="M60.5593 49.5186L10.7778 78.2594V20.7778" fill="white"/>
<path id="Vector_4" d="M14.0869 26.4311C14.0506 26.2438 14.2723 26.1169 14.4155 26.2431L15.6879 27.3642L17.169 26.5434C17.3352 26.4513 17.5242 26.6212 17.4501 26.7962L16.7897 28.3582L18.0414 29.5205C18.1807 29.6498 18.0779 29.8823 17.8885 29.8663L16.1909 29.7234L15.4663 31.2621C15.3854 31.4337 15.1335 31.4069 15.0905 31.2222L14.706 29.5677L13.0179 29.3522C12.8306 29.3283 12.7777 29.0821 12.9386 28.9833L14.4066 28.0828L14.0869 26.4311ZM52.4042 46.9479C52.5187 46.7967 52.7597 46.8748 52.7637 47.0644L52.7995 48.7642L54.4114 49.3283C54.5904 49.391 54.5898 49.6444 54.4104 49.7062L52.7995 50.2611L52.7636 51.9638C52.7596 52.1531 52.5193 52.2314 52.4046 52.0807L51.3744 50.7281L49.7433 51.221C49.562 51.2758 49.4132 51.0714 49.521 50.9157L50.4882 49.5186L49.521 48.1215C49.4132 47.9658 49.562 47.7614 49.7433 47.8162L51.3744 48.3091L52.4042 46.9479ZM15.1015 67.8194C15.1445 67.6341 15.3974 67.6079 15.4776 67.7803L16.1909 69.3138L17.8918 69.1706C18.0809 69.1547 18.1838 69.3864 18.0452 69.516L16.8016 70.679L17.4638 72.2449C17.5376 72.4196 17.3497 72.5894 17.1834 72.4982L15.6999 71.6849L14.411 72.7948C14.2674 72.9185 14.0483 72.7916 14.0841 72.6055L14.4066 70.9305L12.9489 70.0541C12.7862 69.9563 12.8385 69.7082 13.0267 69.6843L14.7179 69.4695L15.1015 67.8194Z" fill="#FCD116"/>
<path id="Union_3" fill-rule="evenodd" clip-rule="evenodd" d="M24.8667 42.133C24.5198 40.5416 25.5695 39 27 39C28.4306 39 29.4802 40.5416 29.1333 42.133L28.6853 44.1879C29.1181 44.3132 29.5309 44.4855 29.9179 44.6989L31.0543 42.9288C31.9343 41.5582 33.7666 41.2103 34.7782 42.2219C35.7897 43.2334 35.4419 45.0657 34.0712 45.9457L32.3011 47.0821C32.5145 47.4691 32.6869 47.8819 32.8121 48.3147L34.867 47.8667C36.4584 47.5197 38 48.5694 38 49.9999C38 51.4305 36.4584 52.4802 34.867 52.1332L32.8122 51.6852C32.6869 52.1181 32.5146 52.531 32.3011 52.9179L34.0712 54.0544C35.4419 54.9344 35.7897 56.7667 34.7782 57.7782C33.7666 58.7898 31.9343 58.4419 31.0544 57.0713L29.9179 55.3012C29.531 55.5146 29.1181 55.6869 28.6853 55.8122L29.1333 57.867C29.4802 59.4584 28.4306 61 27 61C25.5695 61 24.5198 59.4584 24.8667 57.867L25.3147 55.8122C24.8819 55.687 24.469 55.5146 24.0821 55.3012L22.9456 57.0713C22.0657 58.4419 20.2334 58.7898 19.2218 57.7782C18.2103 56.7667 18.5581 54.9343 19.9288 54.0544L21.6989 52.918C21.4854 52.531 21.3131 52.1181 21.1878 51.6852L19.133 52.1332C17.5416 52.4802 16 51.4305 16 50C16 48.5694 17.5416 47.5197 19.133 47.8667L21.1879 48.3147C21.3131 47.8819 21.4855 47.469 21.6989 47.0821L19.9287 45.9456C18.5581 45.0657 18.2103 43.2334 19.2218 42.2218C20.2334 41.2103 22.0657 41.5581 22.9456 42.9287L24.0821 44.6989C24.4691 44.4855 24.8819 44.3132 25.3147 44.1879L24.8667 42.133Z" fill="#FCD116"/>
</g>
</g>
<g id="filter" style="mix-blend-mode:screen">
<rect x="10.7778" y="20.7778" width="76.6481" height="57.4816" fill="#414141"/>
</g>
</g>
</g>
</g>
</g>
<defs>
<clipPath id="clip0_122_3383">
<rect width="100" height="100" fill="white"/>
</clipPath>
<clipPath id="clip1_122_3383">
<rect x="10.7778" y="20.7778" width="76.6421" height="57.4816" rx="4" fill="white"/>
</clipPath>
<clipPath id="clip2_122_3383">
<rect x="10.7778" y="20.7778" width="76.6421" height="57.4816" rx="1.7963" fill="white"/>
</clipPath>
</defs>
</svg>

<svg xmlns="http://www.w3.org/2000/svg" width="100" height="100" fill="none" xmlns:v="https://vecta.io/nano"><g clip-path="url(#A)"><path d="M87.426 11.796H14.37c-6.944 0-12.574 5.63-12.574 12.574v53.889c0 6.945 5.63 12.574 12.574 12.574h73.056c6.945 0 12.574-5.63 12.574-12.574V24.37c0-6.944-5.63-12.574-12.574-12.574z" fill="#605f5e" fill-opacity=".3"/><path d="M85.63 10H12.574C5.63 10 0 15.63 0 22.574v53.889c0 6.945 5.63 12.574 12.574 12.574H85.63c6.945 0 12.574-5.63 12.574-12.574V22.574C98.204 15.63 92.574 10 85.63 10z" fill="#f5f1ee"/><g clip-path="url(#B)"><g clip-path="url(#C)"><path d="M10.778 20.778h76.648v28.741H10.778V20.778z" fill="#0038a8"/><path d="M10.778 49.519h76.648v28.741H10.778V49.519z" fill="#ce1126"/><path d="M60.559 49.519L10.778 78.259V20.778" fill="#fff"/><g fill="#fcd116"><path d="M14.087 26.431a.2.2 0 0 1 .329-.188l1.272 1.121 1.481-.821a.2.2 0 0 1 .281.253l-.66 1.562 1.252 1.162a.2.2 0 0 1-.153.346l-1.698-.143-.725 1.539a.2.2 0 0 1-.376-.04l-.385-1.655-1.688-.215a.2.2 0 0 1-.079-.369l1.468-.901-.32-1.652zm38.317 20.517a.2.2 0 0 1 .359.116l.036 1.7 1.612.564a.2.2 0 0 1-.001.378l-1.611.555-.036 1.703a.2.2 0 0 1-.359.117l-1.03-1.353-1.631.493a.2.2 0 0 1-.222-.305l.967-1.397-.967-1.397a.2.2 0 0 1 .222-.305l1.631.493 1.03-1.361zM15.102 67.819a.2.2 0 0 1 .376-.039l.713 1.534 1.701-.143a.2.2 0 0 1 .153.345l-1.244 1.163.662 1.566a.2.2 0 0 1-.28.253l-1.484-.813-1.289 1.11a.2.2 0 0 1-.327-.189l.322-1.675-1.458-.876a.2.2 0 0 1 .078-.37l1.691-.215.384-1.65z"/><path fill-rule="evenodd" d="M24.867 42.133C24.52 40.542 25.569 39 27 39s2.48 1.542 2.133 3.133l-.448 2.055a6.02 6.02 0 0 1 1.233.511l1.136-1.77c.88-1.371 2.712-1.719 3.724-.707s.664 2.844-.707 3.724l-1.77 1.136a6.02 6.02 0 0 1 .511 1.233l2.055-.448C36.458 47.52 38 48.569 38 50s-1.542 2.48-3.133 2.133l-2.055-.448a6.01 6.01 0 0 1-.511 1.233l1.77 1.136c1.371.88 1.719 2.712.707 3.724s-2.844.664-3.724-.707l-1.136-1.77a6.02 6.02 0 0 1-1.233.511l.448 2.055C29.48 59.458 28.431 61 27 61s-2.48-1.542-2.133-3.133l.448-2.055a6.01 6.01 0 0 1-1.233-.511l-1.137 1.77c-.88 1.371-2.712 1.718-3.724.707s-.664-2.844.707-3.724l1.77-1.136a6.01 6.01 0 0 1-.511-1.233l-2.055.448C17.542 52.48 16 51.431 16 50s1.542-2.48 3.133-2.133l2.055.448a6.01 6.01 0 0 1 .511-1.233l-1.77-1.136c-1.371-.88-1.718-2.712-.707-3.724s2.844-.664 3.724.707l1.137 1.77a6.02 6.02 0 0 1 1.233-.511l-.448-2.055z"/></g></g><g style="mix-blend-mode:screen"><path fill="#414141" d="M10.778 20.778h76.648v57.482H10.778z"/></g></g></g><defs><clipPath id="A"><path fill="#fff" d="M0 0h100v100H0z"/></clipPath><clipPath id="B"><rect x="10.778" y="20.778" width="76.642" height="57.482" rx="4" fill="#fff"/></clipPath><clipPath id="C"><rect x="10.778" y="20.778" width="76.642" height="57.482" rx="1.796" fill="#fff"/></clipPath></defs></svg>
